X:416
T: AUF AUF IHR KRIEGER
N: E0345
O: Europa, Mitteleuropa, Oesterreich
R: historisches Lied, Krieg (1809)
M: 4/4
L: 1/8
K: Eb
B2 | e3BBAGF | E2E2E2z
G | FBdfe3=A | B4z2
BA | G2G2G3B | BAAGA3
G | GFF2F3A | AGGFG2
B2 | e3BAGFE | B4
d4 | e3cBAGF | E4z2

@@@ Tune index: 4066
